;FLAVOR:Marlin
;TIME:25617
;Filament used: 21.3408m
;Layer height: 0.38
;MINX:56.1
;MINY:56.1
;MINZ:0.425
;MAXX:233.9
;MAXY:218.9
;MAXZ:68.065
;Generated with Cura_SteamEngine 4.13.8
M82 ;absolute extrusion mode
;This G-Code has been generated specifically for the LulzBot TAZ 5 | Single Extruder

;SETTINGS
;Nozzle diameter = 0.6mm
;Filament name = Polymaker PolyLite PLA
;Filament type = PLA (Easy Printing) 2.85
;Filament weight = ~159.29g
;Extruder temp = M109 S205
;Bed temp = M190 S65

M73 P0                                      ; clear GLCD progress bar
M75			                                ; start GLCD timer
M140 S65    ; start bed heating up
G90                                         ; absolute positioning
M107                                        ; disable fans
M82                                         ; set extruder to absolute mode
G28 X0 Y0                                   ; home X and Y
G28 Z0                                      ; home Z
G1 Z15.0 F175                    ; move extruder up
M117 Heating...                             ; progress indicator message on LCD
M109 R205  ; wait for extruder to reach printing temp
M190 R65    ; wait for bed to reach printing temp
G92 E0                                      ; set extruder position to 0
G1 F200 E0                                  ; prime the nozzle with filament
G92 E0                                      ; re-set extruder position to 0
G1 F175                          ; set travel speed
M203 X192 Y208 Z3                           ; set limits on travel speed
M117 TAZ 5 Printing...                      ; progress indicator message on LCD
;Start G-Code End

G92 E0
G92 E0
G1 F600 E-1.75
;LAYER_COUNT:179
;LAYER:0
M107
G0 F2625 X57.102 Y57.409 Z0.425
;TYPE:SKIRT
G1 F600 E0
G1 F900 X57.503 Y57.02 E0.02189
G1 X57.956 Y56.693 E0.04377
G1 X58.45 Y56.434 E0.06562
G1 X58.976 Y56.248 E0.08748
G1 X59.524 Y56.139 E0.10936
G1 X60.221 Y56.102 E0.13671
G1 X60.33 Y56.1 E0.14098
G1 X229.349 Y56.1 E6.76195
G1 X230.047 Y56.11 E6.7893
G1 X230.603 Y56.158 E6.81116
G1 X231.147 Y56.285 E6.83304
G1 X231.667 Y56.488 E6.85491
G1 X232.152 Y56.764 E6.87677
G1 X232.594 Y57.105 E6.89864
G1 X232.982 Y57.507 E6.92053
G1 X233.308 Y57.959 E6.94236
G1 X233.567 Y58.454 E6.96424
G1 X233.753 Y58.98 E6.9861
G1 X233.861 Y59.528 E7.00798
G1 X233.898 Y60.22 E7.03512
G1 X233.9 Y60.33 E7.03943
G1 X233.9 Y214.312 E13.07137
G1 X233.891 Y215.039 E13.09985
G1 X233.844 Y215.596 E13.12174
G1 X233.718 Y216.139 E13.14358
G1 X233.516 Y216.66 E13.16547
G1 X233.242 Y217.146 E13.18733
G1 X232.901 Y217.588 E13.20919
G1 X232.5 Y217.977 E13.23108
G1 X232.048 Y218.304 E13.25293
G1 X231.554 Y218.564 E13.2748
G1 X231.028 Y218.751 E13.29667
G1 X230.481 Y218.86 E13.31852
G1 X229.779 Y218.898 E13.34606
G1 X229.67 Y218.9 E13.35033
G1 X60.657 Y218.9 E19.97107
G1 X59.959 Y218.891 E19.99842
G1 X59.402 Y218.844 E20.02031
G1 X58.859 Y218.718 E20.04215
G1 X58.338 Y218.515 E20.06405
G1 X57.852 Y218.241 E20.08591
G1 X57.411 Y217.899 E20.10777
G1 X57.022 Y217.499 E20.12963
G1 X56.695 Y217.047 E20.15148
G1 X56.435 Y216.552 E20.17338
G1 X56.249 Y216.026 E20.19524
G1 X56.14 Y215.479 E20.21709
G1 X56.101 Y214.763 E20.24518
G1 X56.1 Y60.621 E26.28338
G1 X56.109 Y59.956 E26.30943
G1 X56.157 Y59.4 E26.33129
G1 X56.283 Y58.856 E26.35317
G1 X56.486 Y58.336 E26.37503
G1 X56.761 Y57.85 E26.39691
G1 X57.102 Y57.409 E26.41875
G0 F2625 X57.692 Y57.66
G1 F900 X58.084 Y57.329 E26.43884
G1 X58.523 Y57.062 E26.45897
G1 X58.998 Y56.868 E26.47907
G1 X59.498 Y56.749 E26.49921
G1 X60.238 Y56.701 E26.52825
G1 X229.34 Y56.7 E33.15248
G1 X230.038 Y56.71 E33.17983
G1 X230.55 Y56.758 E33.19997
G1 X231.047 Y56.884 E33.22006
G1 X231.519 Y57.085 E33.24016
G1 X231.955 Y57.358 E33.26031
G1 X232.342 Y57.694 E33.28038
G1 X232.673 Y58.087 E33.30051
G1 X232.939 Y58.526 E33.32062
G1 X233.133 Y59.002 E33.34075
G1 X233.252 Y59.501 E33.36085
G1 X233.299 Y60.237 E33.38974
G1 X233.3 Y214.305 E39.42504
G1 X233.291 Y215.032 E39.45352
G1 X233.244 Y215.543 E39.47363
G1 X233.119 Y216.041 E39.49374
G1 X232.919 Y216.514 E39.51386
G1 X232.647 Y216.949 E39.53395
G1 X232.311 Y217.338 E39.55409
G1 X231.919 Y217.669 E39.57419
G1 X231.48 Y217.936 E39.59431
G1 X231.006 Y218.131 E39.61439
G1 X230.506 Y218.251 E39.63454
G1 X229.762 Y218.299 E39.66374
G1 X60.664 Y218.3 E46.28781
G1 X59.966 Y218.291 E46.31516
G1 X59.455 Y218.244 E46.33526
G1 X58.957 Y218.119 E46.35537
G1 X58.485 Y217.918 E46.37547
G1 X58.049 Y217.646 E46.3956
G1 X57.661 Y217.31 E46.41571
G1 X57.33 Y216.918 E46.4358
G1 X57.063 Y216.479 E46.45593
G1 X56.868 Y216.004 E46.47605
G1 X56.749 Y215.505 E46.49614
G1 X56.701 Y214.747 E46.52589
G1 X56.7 Y60.629 E52.56316
G1 X56.709 Y59.964 E52.58921
G1 X56.756 Y59.453 E52.60931
G1 X56.882 Y58.955 E52.62943
G1 X57.083 Y58.483 E52.64953
G1 X57.355 Y58.048 E52.66963
G1 X57.692 Y57.66 E52.68976
G1 F600 E50.93976
;MESH:Mounting_Plate_Front_V2.stl
G0 F2625 X59.618 Y59.618
G0 X60.614 Y60.614
G0 X73.9 Y67.45
;TYPE:WALL-INNER
G1 F600 E52.68976
G1 F900 X73.9 Y69.209 E52.75866
G1 X73.691 Y69.153 E52.76714
G1 X73.068 Y69.098 E52.79164
G1 X72.237 Y69.216 E52.82452
G1 X71.399 Y69.549 E52.85984
G1 X70.712 Y70.087 E52.89403
G1 X70.172 Y70.77 E52.92813
G1 X69.907 Y71.336 E52.95261
G1 X69.753 Y71.909 E52.97586
G1 X69.698 Y72.532 E53.00036
G1 X69.816 Y73.363 E53.03324
G1 X70.149 Y74.202 E53.0686
G1 X70.688 Y74.888 E53.10277
G1 X71.37 Y75.428 E53.13685
G1 X71.936 Y75.693 E53.16133
G1 X72.539 Y75.855 E53.18579
G1 X73.378 Y75.884 E53.21867
G1 X73.9 Y75.776 E53.23956
G1 X73.9 Y118.209 E54.90178
G1 X73.691 Y118.153 E54.91026
G1 X73.068 Y118.098 E54.93476
G1 X72.237 Y118.216 E54.96764
G1 X71.399 Y118.549 E55.00296
G1 X70.712 Y119.087 E55.03714
G1 X70.172 Y119.77 E55.07125
G1 X69.907 Y120.336 E55.09573
G1 X69.753 Y120.909 E55.11898
G1 X69.698 Y121.532 E55.14347
G1 X69.816 Y122.363 E55.17635
G1 X70.149 Y123.201 E55.21168
G1 X70.687 Y123.888 E55.24586
G1 X71.37 Y124.428 E55.27997
G1 X71.936 Y124.693 E55.30445
G1 X72.539 Y124.855 E55.32891
G1 X73.378 Y124.884 E55.36179
G1 X73.9 Y124.776 E55.38267
G1 X73.9 Y126.55 E55.45217
G1 X155.7 Y126.55 E58.65652
G1 X155.7 Y124.791 E58.72542
G1 X155.939 Y124.855 E58.73512
G1 X156.778 Y124.884 E58.768
G1 X157.63 Y124.707 E58.80209
G1 X158.228 Y124.429 E58.82792
G1 X158.888 Y123.913 E58.86074
G1 X159.428 Y123.23 E58.89485
G1 X159.693 Y122.664 E58.91933
G1 X159.847 Y122.091 E58.94257
G1 X159.902 Y121.468 E58.96707
G1 X159.784 Y120.637 E58.99995
G1 X159.451 Y119.799 E59.03527
G1 X158.913 Y119.112 E59.06946
G1 X158.23 Y118.572 E59.10356
G1 X157.664 Y118.307 E59.12805
G1 X157.091 Y118.153 E59.15129
G1 X156.468 Y118.098 E59.17579
G1 X155.7 Y118.207 E59.20617
G1 X155.7 Y75.791 E60.86774
G1 X155.939 Y75.855 E60.87743
G1 X156.778 Y75.884 E60.91031
G1 X157.63 Y75.707 E60.9444
G1 X158.228 Y75.429 E60.97023
G1 X158.888 Y74.913 E61.00305
G1 X159.428 Y74.23 E61.03716
G1 X159.693 Y73.664 E61.06164
G1 X159.847 Y73.091 E61.08488
G1 X159.902 Y72.468 E61.10938
G1 X159.784 Y71.637 E61.14226
G1 X159.451 Y70.799 E61.17759
G1 X158.913 Y70.112 E61.21177
G1 X158.23 Y69.572 E61.24588
G1 X157.664 Y69.307 E61.27036
G1 X157.091 Y69.153 E61.2936
G1 X156.468 Y69.098 E61.3181
G1 X155.7 Y69.207 E61.34849
G1 X155.7 Y67.45 E61.41731
G1 X73.9 Y67.45 E64.62166
G0 F2625 X70.91 Y71.224
G0 X70.565 Y121.51
G0 X70.903 Y122.766
G0 X84.535 Y144.525
G0 X85.69 Y145.865
G0 X86.768 Y146.737
G0 X91.24 Y149.431
G1 F900 X93.775 Y149.101 E64.7218
G1 X94.721 Y148.882 E64.75984
G1 X95.638 Y148.573 E64.79775
G1 X96.523 Y148.176 E64.83575
G1 X97.363 Y147.697 E64.87362
G1 X98.157 Y147.137 E64.91169
G1 X98.892 Y146.502 E64.94973
G1 X99.56 Y145.799 E64.98772
G1 X100.156 Y145.036 E65.02565
G1 X100.679 Y144.219 E65.06365
G1 X101.116 Y143.352 E65.10168
G1 X101.469 Y142.449 E65.13966
G1 X101.733 Y141.516 E65.17765
G1 X101.906 Y140.562 E65.21563
G1 X101.965 Y139.845 E65.24381
G1 X101.983 Y139.586 E65.25398
G1 X101.968 Y138.627 E65.29155
G1 X101.859 Y137.664 E65.32952
G1 X101.658 Y136.716 E65.36748
G1 X101.365 Y135.792 E65.40545
G1 X101.083 Y135.129 E65.43367
G1 X100.979 Y134.893 E65.44378
G1 X100.516 Y134.048 E65.48152
G1 X99.968 Y133.247 E65.51954
G1 X99.348 Y132.503 E65.55748
G1 X98.659 Y131.822 E65.59542
G1 X97.904 Y131.21 E65.6335
G1 X97.093 Y130.677 E65.67151
G1 X96.238 Y130.223 E65.70943
G1 X95.338 Y129.855 E65.74752
G1 X94.411 Y129.576 E65.78545
G1 X93.461 Y129.388 E65.82338
G1 X92.496 Y129.292 E65.86137
G1 X91.526 Y129.291 E65.89937
G1 X90.563 Y129.386 E65.93727
G1 X89.611 Y129.57 E65.97526
G1 X88.679 Y129.849 E66.01337
G1 X87.782 Y130.215 E66.05132
G1 X86.925 Y130.667 E66.08927
G1 X86.114 Y131.197 E66.12722
G1 X85.359 Y131.807 E66.16525
G1 X84.667 Y132.486 E66.20322
G1 X84.204 Y133.036 E66.23139
G1 X84.04 Y133.235 E66.24149
G1 X83.496 Y134.029 E66.27919
G1 X83.026 Y134.879 E66.31724
G1 X82.643 Y135.771 E66.35527
G1 X82.349 Y136.694 E66.39321
G1 X82.144 Y137.642 E66.43121
G1 X82.033 Y138.606 E66.46922
G1 X82.016 Y139.573 E66.50711
G1 X82.092 Y140.539 E66.54506
G1 X82.26 Y141.492 E66.58297
G1 X82.454 Y142.191 E66.61139
G1 X82.528 Y142.438 E66.62149
G1 X82.874 Y143.332 E66.65904
G1 X83.31 Y144.198 E66.69702
G1 X83.83 Y145.019 E66.73509
G1 X84.427 Y145.784 E66.7731
G1 X85.094 Y146.487 E66.81107
G1 X85.826 Y147.122 E66.84903
G1 X86.616 Y147.685 E66.88703
G1 X87.457 Y148.167 E66.925
G1 X88.342 Y148.565 E66.96301
G1 X89.26 Y148.877 E67.00099
G1 X90.197 Y149.095 E67.03868
G1 X90.924 Y149.195 E67.06742
G1 X91.24 Y149.232 E67.07989
G1 X91.24 Y149.431 E67.08768
G0 F2625 X88.193 Y160.8
G1 F900 X88.209 Y162.16 E67.14096
G1 X87.167 Y162.514 E67.18407
G1 X86.138 Y162.963 E67.22805
G1 X85.391 Y163.364 E67.26126
G1 X85.142 Y163.501 E67.2724
G1 X84.206 Y164.114 E67.31623
G1 X83.318 Y164.807 E67.36035
G1 X82.494 Y165.571 E67.40437
G1 X81.738 Y166.401 E67.44835
G1 X81.051 Y167.292 E67.49242
G1 X80.445 Y168.239 E67.53646
G1 X79.917 Y169.232 E67.58052
G1 X79.475 Y170.268 E67.62464
G1 X79.122 Y171.335 E67.66867
G1 X78.861 Y172.429 E67.71273
G1 X78.691 Y173.541 E67.75679
G1 X78.616 Y174.662 E67.8008
G1 X78.635 Y175.784 E67.84476
G1 X78.746 Y176.902 E67.88877
G1 X78.901 Y177.735 E67.92196
G1 X78.956 Y178.013 E67.93306
G1 X79.251 Y179.092 E67.97688
G1 X79.641 Y180.149 E68.02102
G1 X80.116 Y181.168 E68.06506
G1 X80.675 Y182.142 E68.10905
G1 X81.315 Y183.068 E68.15315
G1 X82.029 Y183.936 E68.19717
G1 X82.814 Y184.741 E68.24122
G1 X83.664 Y185.478 E68.28529
G1 X84.572 Y186.141 E68.32933
G1 X85.534 Y186.725 E68.37342
G1 X86.541 Y187.225 E68.41746
G1 X87.585 Y187.64 E68.46147
G1 X88.661 Y187.968 E68.50553
G1 X89.762 Y188.2 E68.54961
G1 X90.877 Y188.341 E68.59363
G1 X92 Y188.39 E68.63767
G1 X93.123 Y188.341 E68.6817
G1 X94.238 Y188.2 E68.72573
G1 X95.337 Y187.968 E68.76973
G1 X96.415 Y187.641 E68.81385
G1 X97.199 Y187.331 E68.84688
G1 X97.464 Y187.223 E68.85809
G1 X98.466 Y186.725 E68.90192
G1 X99.428 Y186.141 E68.94601
G1 X100.336 Y185.478 E68.99005
G1 X101.186 Y184.741 E69.03412
G1 X101.971 Y183.936 E69.07816
G1 X102.685 Y183.068 E69.12219
G1 X103.325 Y182.142 E69.16629
G1 X103.884 Y181.168 E69.21028
G1 X104.359 Y180.148 E69.25436
G1 X104.749 Y179.094 E69.29838
G1 X105.047 Y178.008 E69.34249
G1 X105.252 Y176.903 E69.38652
G1 X105.365 Y175.784 E69.43058
G1 X105.384 Y174.661 E69.47457
G1 X105.308 Y173.539 E69.51863
G1 X105.141 Y172.432 E69.56248
G1 X104.944 Y171.605 E69.59578
G1 X104.875 Y171.328 E69.60697
G1 X104.525 Y170.27 E69.65062
G1 X104.195 Y169.488 E69.68387
G1 X104.078 Y169.225 E69.69515
G1 X103.557 Y168.239 E69.73883
G1 X102.949 Y167.292 E69.78292
G1 X102.264 Y166.403 E69.82688
G1 X101.695 Y165.776 E69.86005
G1 X101.499 Y165.566 E69.8713
G1 X100.682 Y164.806 E69.91501
G1 X99.794 Y164.114 E69.95911
G1 X98.854 Y163.498 E70.00314
G1 X97.865 Y162.963 E70.04718
G1 X96.834 Y162.514 E70.09123
G1 X95.788 Y162.158 E70.13452
G1 X95.795 Y160.8 E70.18771
G1 X88.193 Y160.8 E70.48551
G0 F2625 X114.24 Y149.431
G1 F900 X116.775 Y149.101 E70.58565
G1 X117.721 Y148.882 E70.62369
G1 X118.638 Y148.573 E70.66159
G1 X119.523 Y148.176 E70.69959
G1 X120.363 Y147.697 E70.73747
G1 X121.157 Y147.137 E70.77553
G1 X121.892 Y146.502 E70.81358
G1 X122.56 Y145.799 E70.85157
G1 X123.156 Y145.036 E70.88949
G1 X123.679 Y144.219 E70.92749
G1 X124.116 Y143.352 E70.96553
G1 X124.469 Y142.449 E71.00351
G1 X124.733 Y141.516 E71.04149
G1 X124.906 Y140.562 E71.07947
G1 X124.965 Y139.845 E71.10765
G1 X124.983 Y139.586 E71.11782
G1 X124.968 Y138.627 E71.15539
G1 X124.859 Y137.664 E71.19336
G1 X124.658 Y136.716 E71.23132
G1 X124.365 Y135.792 E71.26929
G1 X124.083 Y135.129 E71.29752
G1 X123.979 Y134.893 E71.30762
G1 X123.516 Y134.048 E71.34536
G1 X122.968 Y133.247 E71.38338
G1 X122.348 Y132.503 E71.42132
G1 X121.659 Y131.822 E71.45927
G1 X120.904 Y131.21 E71.49734
G1 X120.093 Y130.677 E71.53536
G1 X119.238 Y130.223 E71.57328
G1 X118.338 Y129.855 E71.61137
G1 X117.411 Y129.576 E71.64929
G1 X116.461 Y129.388 E71.68723
G1 X115.496 Y129.292 E71.72521
G1 X114.526 Y129.291 E71.76321
G1 X113.563 Y129.386 E71.80112
G1 X112.611 Y129.57 E71.8391
G1 X111.679 Y129.849 E71.87721
G1 X110.782 Y130.215 E71.91516
G1 X109.925 Y130.667 E71.95312
G1 X109.114 Y131.197 E71.99107
G1 X108.359 Y131.807 E72.02909
G1 X107.667 Y132.486 E72.06707
G1 X107.204 Y133.036 E72.09523
G1 X107.04 Y133.235 E72.10533
G1 X106.496 Y134.029 E72.14304
G1 X106.026 Y134.879 E72.18108
G1 X105.643 Y135.771 E72.21911
G1 X105.349 Y136.694 E72.25706
G1 X105.144 Y137.642 E72.29505
G1 X105.033 Y138.606 E72.33306
G1 X105.016 Y139.573 E72.37095
G1 X105.092 Y140.539 E72.40891
G1 X105.26 Y141.492 E72.44682
G1 X105.454 Y142.191 E72.47523
G1 X105.528 Y142.438 E72.48533
G1 X105.874 Y143.332 E72.52289
G1 X106.31 Y144.198 E72.56087
G1 X106.83 Y145.019 E72.59894
G1 X107.427 Y145.784 E72.63695
G1 X108.094 Y146.487 E72.67491
G1 X108.826 Y147.122 E72.71287
G1 X109.616 Y147.685 E72.75087
G1 X110.457 Y148.167 E72.78884
G1 X111.342 Y148.565 E72.82686
G1 X112.26 Y148.877 E72.86484
G1 X113.197 Y149.095 E72.90252
G1 X113.924 Y149.195 E72.93127
G1 X114.24 Y149.232 E72.94373
G1 X114.24 Y149.431 E72.95153
G0 F2625 X134.196 Y160.8
G1 F900 X134.209 Y162.16 E73.00481
G1 X133.167 Y162.514 E73.04791
G1 X132.138 Y162.963 E73.09189
G1 X131.391 Y163.364 E73.12511
G1 X131.142 Y163.501 E73.13624
G1 X130.206 Y164.114 E73.18007
G1 X129.318 Y164.807 E73.22419
G1 X128.494 Y165.571 E73.26821
G1 X127.738 Y166.401 E73.31219
G1 X127.051 Y167.292 E73.35626
G1 X126.445 Y168.239 E73.40031
G1 X125.917 Y169.232 E73.44436
G1 X125.475 Y170.268 E73.48848
G1 X125.122 Y171.335 E73.53251
G1 X124.861 Y172.429 E73.57657
G1 X124.691 Y173.541 E73.62063
G1 X124.616 Y174.662 E73.66465
G1 X124.635 Y175.784 E73.7086
G1 X124.746 Y176.902 E73.75261
G1 X124.901 Y177.735 E73.78581
G1 X124.956 Y178.013 E73.79691
G1 X125.251 Y179.092 E73.84073
G1 X125.641 Y180.149 E73.88486
G1 X126.116 Y181.168 E73.9289
G1 X126.675 Y182.142 E73.97289
G1 X127.315 Y183.068 E74.01699
G1 X128.029 Y183.936 E74.06102
G1 X128.814 Y184.741 E74.10506
G1 X129.664 Y185.478 E74.14913
G1 X130.572 Y186.141 E74.19317
G1 X131.534 Y186.725 E74.23726
G1 X132.541 Y187.225 E74.2813
G1 X133.585 Y187.64 E74.32531
G1 X134.661 Y187.968 E74.36937
G1 X135.762 Y188.2 E74.41345
G1 X136.877 Y188.341 E74.45748
G1 X138 Y188.39 E74.50151
G1 X139.123 Y188.341 E74.54554
G1 X140.238 Y188.2 E74.58957
G1 X141.337 Y187.968 E74.63357
G1 X142.415 Y187.641 E74.6777
G1 X143.199 Y187.331 E74.71072
G1 X143.464 Y187.223 E74.72193
G1 X144.466 Y186.725 E74.76576
G1 X145.428 Y186.141 E74.80985
G1 X146.336 Y185.478 E74.85389
G1 X147.186 Y184.741 E74.89796
G1 X147.971 Y183.936 E74.94201
G1 X148.685 Y183.068 E74.98603
G1 X149.325 Y182.142 E75.03013
G1 X149.884 Y181.168 E75.07412
G1 X150.359 Y180.148 E75.1182
G1 X150.749 Y179.094 E75.16222
G1 X151.047 Y178.008 E75.20634
G1 X151.252 Y176.903 E75.25036
G1 X151.365 Y175.784 E75.29442
G1 X151.384 Y174.661 E75.33842
G1 X151.308 Y173.539 E75.38247
G1 X151.141 Y172.432 E75.42632
G1 X150.944 Y171.605 E75.45963
G1 X150.875 Y171.328 E75.47081
G1 X150.525 Y170.27 E75.51446
G1 X150.195 Y169.488 E75.54771
G1 X150.078 Y169.225 E75.55899
G1 X149.557 Y168.239 E75.60267
G1 X148.949 Y167.294 E75.64669
