;FLAVOR:Marlin
;TIME:15351
;Filament used: 13.5413m
;Layer height: 0.38
;MINX:56.1
;MINY:56.1
;MINZ:0.425
;MAXX:233.9
;MAXY:218.9
;MAXZ:42.985
;Generated with Cura_SteamEngine 4.13.8
M82 ;absolute extrusion mode
;This G-Code has been generated specifically for the LulzBot TAZ 5 | Single Extruder

;SETTINGS
;Nozzle diameter = 0.6mm
;Filament name = Polymaker PolyLite PLA
;Filament type = PLA (Easy Printing) 2.85
;Filament weight = ~101.07g
;Extruder temp = M109 S205
;Bed temp = M190 S65

M73 P0                                      ; clear GLCD progress bar
M75			                                ; start GLCD timer
M140 S65    ; start bed heating up
G90                                         ; absolute positioning
M107                                        ; disable fans
M82                                         ; set extruder to absolute mode
G28 X0 Y0                                   ; home X and Y
G28 Z0                                      ; home Z
G1 Z15.0 F175                    ; move extruder up
M117 Heating...                             ; progress indicator message on LCD
M109 R205  ; wait for extruder to reach printing temp
M190 R65    ; wait for bed to reach printing temp
G92 E0                                      ; set extruder position to 0
G1 F200 E0                                  ; prime the nozzle with filament
G92 E0                                      ; re-set extruder position to 0
G1 F175                          ; set travel speed
M203 X192 Y208 Z3                           ; set limits on travel speed
M117 TAZ 5 Printing...                      ; progress indicator message on LCD
;Start G-Code End

G92 E0
G92 E0
G1 F600 E-1.75
;LAYER_COUNT:113
;LAYER:0
M107
G0 F2625 X57.102 Y57.409 Z0.425
;TYPE:SKIRT
G1 F600 E0
G1 F900 X57.503 Y57.02 E0.02189
G1 X57.956 Y56.693 E0.04377
G1 X58.45 Y56.434 E0.06562
G1 X58.976 Y56.248 E0.08748
G1 X59.524 Y56.139 E0.10936
G1 X60.221 Y56.102 E0.13671
G1 X60.33 Y56.1 E0.14098
G1 X229.349 Y56.1 E6.76195
G1 X230.047 Y56.11 E6.7893
G1 X230.603 Y56.158 E6.81116
G1 X231.147 Y56.285 E6.83304
G1 X231.667 Y56.488 E6.85491
G1 X232.152 Y56.764 E6.87677
G1 X232.594 Y57.105 E6.89864
G1 X232.982 Y57.507 E6.92053
G1 X233.308 Y57.959 E6.94236
G1 X233.567 Y58.454 E6.96424
G1 X233.753 Y58.98 E6.9861
G1 X233.861 Y59.528 E7.00798
G1 X233.898 Y60.22 E7.03512
G1 X233.9 Y60.33 E7.03943
G1 X233.9 Y214.312 E13.07137
G1 X233.891 Y215.039 E13.09985
G1 X233.844 Y215.596 E13.12174
G1 X233.718 Y216.139 E13.14358
G1 X233.516 Y216.66 E13.16547
G1 X233.242 Y217.146 E13.18733
G1 X232.901 Y217.588 E13.20919
G1 X232.5 Y217.977 E13.23108
G1 X232.048 Y218.304 E13.25293
G1 X231.554 Y218.564 E13.2748
G1 X231.028 Y218.751 E13.29667
G1 X230.481 Y218.86 E13.31852
G1 X229.779 Y218.898 E13.34606
G1 X229.67 Y218.9 E13.35033
G1 X60.657 Y218.9 E19.97107
G1 X59.959 Y218.891 E19.99842
G1 X59.402 Y218.844 E20.02031
G1 X58.859 Y218.718 E20.04215
G1 X58.338 Y218.515 E20.06405
G1 X57.852 Y218.241 E20.08591
G1 X57.411 Y217.899 E20.10777
G1 X57.022 Y217.499 E20.12963
G1 X56.695 Y217.047 E20.15148
G1 X56.435 Y216.552 E20.17338
G1 X56.249 Y216.026 E20.19524
G1 X56.14 Y215.479 E20.21709
G1 X56.101 Y214.763 E20.24518
G1 X56.1 Y60.621 E26.28338
G1 X56.109 Y59.956 E26.30943
G1 X56.157 Y59.4 E26.33129
G1 X56.283 Y58.856 E26.35317
G1 X56.486 Y58.336 E26.37503
G1 X56.761 Y57.85 E26.39691
G1 X57.102 Y57.409 E26.41875
G0 F2625 X57.692 Y57.66
G1 F900 X58.084 Y57.329 E26.43884
G1 X58.523 Y57.062 E26.45897
G1 X58.998 Y56.868 E26.47907
G1 X59.498 Y56.749 E26.49921
G1 X60.238 Y56.701 E26.52825
G1 X229.34 Y56.7 E33.15248
G1 X230.038 Y56.71 E33.17983
G1 X230.55 Y56.758 E33.19997
G1 X231.047 Y56.884 E33.22006
G1 X231.519 Y57.085 E33.24016
G1 X231.955 Y57.358 E33.26031
G1 X232.342 Y57.694 E33.28038
G1 X232.673 Y58.087 E33.30051
G1 X232.939 Y58.526 E33.32062
G1 X233.133 Y59.002 E33.34075
G1 X233.252 Y59.501 E33.36085
G1 X233.299 Y60.237 E33.38974
G1 X233.3 Y214.305 E39.42504
G1 X233.291 Y215.032 E39.45352
G1 X233.244 Y215.543 E39.47363
G1 X233.119 Y216.041 E39.49374
G1 X232.919 Y216.514 E39.51386
G1 X232.647 Y216.949 E39.53395
G1 X232.311 Y217.338 E39.55409
G1 X231.919 Y217.669 E39.57419
G1 X231.48 Y217.936 E39.59431
G1 X231.006 Y218.131 E39.61439
G1 X230.506 Y218.251 E39.63454
G1 X229.762 Y218.299 E39.66374
G1 X60.664 Y218.3 E46.28781
G1 X59.966 Y218.291 E46.31516
G1 X59.455 Y218.244 E46.33526
G1 X58.957 Y218.119 E46.35537
G1 X58.485 Y217.918 E46.37547
G1 X58.049 Y217.646 E46.3956
G1 X57.661 Y217.31 E46.41571
G1 X57.33 Y216.918 E46.4358
G1 X57.063 Y216.479 E46.45593
G1 X56.868 Y216.004 E46.47605
G1 X56.749 Y215.505 E46.49614
G1 X56.701 Y214.747 E46.52589
G1 X56.7 Y60.629 E52.56316
G1 X56.709 Y59.964 E52.58921
G1 X56.756 Y59.453 E52.60931
G1 X56.882 Y58.955 E52.62943
G1 X57.083 Y58.483 E52.64953
G1 X57.355 Y58.048 E52.66963
G1 X57.692 Y57.66 E52.68976
G1 F600 E50.93976
;MESH:Mounting_Plate_Front.stl
G0 F2625 X59.618 Y59.618
G0 X60.614 Y60.614
G0 X73.9 Y67.45
;TYPE:WALL-INNER
G1 F600 E52.68976
G1 F900 X73.9 Y69.408 E52.76646
G1 X73.658 Y69.343 E52.77628
G1 X73.1 Y69.295 E52.79822
G1 X72.542 Y69.343 E52.82015
G1 X72.004 Y69.488 E52.84198
G1 X71.5 Y69.723 E52.86377
G1 X71.04 Y70.043 E52.88572
G1 X70.643 Y70.44 E52.90771
G1 X70.323 Y70.9 E52.92966
G1 X70.088 Y71.404 E52.95144
G1 X69.943 Y71.942 E52.97327
G1 X69.895 Y72.5 E52.99521
G1 X69.943 Y73.058 E53.01715
G1 X70.088 Y73.596 E53.03898
G1 X70.323 Y74.1 E53.06076
G1 X70.643 Y74.56 E53.08271
G1 X71.04 Y74.957 E53.10471
G1 X71.5 Y75.277 E53.12666
G1 X72.004 Y75.512 E53.14844
G1 X72.542 Y75.657 E53.17027
G1 X73.1 Y75.705 E53.19221
G1 X73.658 Y75.657 E53.21415
G1 X73.9 Y75.592 E53.22396
G1 X73.9 Y118.408 E54.90119
G1 X73.658 Y118.343 E54.91101
G1 X73.1 Y118.295 E54.93295
G1 X72.542 Y118.343 E54.95489
G1 X72.004 Y118.488 E54.97671
G1 X71.5 Y118.723 E54.9985
G1 X71.04 Y119.043 E55.02045
G1 X70.643 Y119.44 E55.04244
G1 X70.323 Y119.9 E55.06439
G1 X70.088 Y120.404 E55.08618
G1 X69.943 Y120.942 E55.108
G1 X69.895 Y121.5 E55.12994
G1 X69.943 Y122.058 E55.15188
G1 X70.088 Y122.596 E55.17371
G1 X70.323 Y123.1 E55.19549
G1 X70.643 Y123.56 E55.21744
G1 X71.04 Y123.957 E55.23944
G1 X71.5 Y124.277 E55.26139
G1 X72.004 Y124.512 E55.28317
G1 X72.542 Y124.657 E55.305
G1 X73.1 Y124.705 E55.32694
G1 X73.658 Y124.657 E55.34888
G1 X73.9 Y124.592 E55.35869
G1 X73.9 Y126.55 E55.43539
G1 X155.7 Y126.55 E58.63974
G1 X155.7 Y124.592 E58.71644
G1 X155.942 Y124.657 E58.72626
G1 X156.5 Y124.705 E58.7482
G1 X157.058 Y124.657 E58.77014
G1 X157.596 Y124.512 E58.79197
G1 X158.1 Y124.277 E58.81375
G1 X158.56 Y123.957 E58.8357
G1 X158.957 Y123.56 E58.85769
G1 X159.277 Y123.1 E58.87964
G1 X159.512 Y122.596 E58.90143
G1 X159.657 Y122.058 E58.92326
G1 X159.705 Y121.5 E58.9452
G1 X159.657 Y120.942 E58.96713
G1 X159.512 Y120.404 E58.98896
G1 X159.277 Y119.9 E59.01075
G1 X158.957 Y119.44 E59.0327
G1 X158.56 Y119.043 E59.05469
G1 X158.1 Y118.723 E59.07664
G1 X157.596 Y118.488 E59.09842
G1 X157.058 Y118.343 E59.12025
G1 X156.5 Y118.295 E59.14219
G1 X155.942 Y118.343 E59.16413
G1 X155.7 Y118.408 E59.17395
G1 X155.7 Y75.592 E60.85118
G1 X155.942 Y75.657 E60.86099
G1 X156.5 Y75.705 E60.88293
G1 X157.058 Y75.657 E60.90487
G1 X157.596 Y75.512 E60.9267
G1 X158.1 Y75.277 E60.94848
G1 X158.56 Y74.957 E60.97043
G1 X158.957 Y74.56 E60.99243
G1 X159.277 Y74.1 E61.01438
G1 X159.512 Y73.596 E61.03616
G1 X159.657 Y73.058 E61.05799
G1 X159.705 Y72.5 E61.07993
G1 X159.657 Y71.942 E61.10187
G1 X159.512 Y71.404 E61.12369
G1 X159.277 Y70.9 E61.14548
G1 X158.957 Y70.44 E61.16743
G1 X158.56 Y70.043 E61.18942
G1 X158.1 Y69.723 E61.21137
G1 X157.596 Y69.488 E61.23316
G1 X157.058 Y69.343 E61.25498
G1 X156.5 Y69.295 E61.27692
G1 X155.942 Y69.343 E61.29886
G1 X155.7 Y69.408 E61.30868
G1 X155.7 Y67.45 E61.38538
G1 X73.9 Y67.45 E64.58973
G0 F2625 X71.072 Y71.331
G0 X70.794 Y121.91
G0 X84.892 Y144.357
G0 X86.135 Y145.75
G0 X91.24 Y149.071
G1 F900 X93.893 Y148.684 E64.69475
G1 X94.888 Y148.428 E64.735
G1 X95.85 Y148.066 E64.77526
G1 X96.766 Y147.604 E64.81545
G1 X97.628 Y147.049 E64.85561
G1 X98.427 Y146.402 E64.89589
G1 X99.152 Y145.676 E64.93608
G1 X99.796 Y144.876 E64.97631
G1 X100.348 Y144.012 E65.01647
G1 X100.808 Y143.095 E65.05666
G1 X101.167 Y142.131 E65.09696
G1 X101.42 Y141.135 E65.13721
G1 X101.563 Y140.119 E65.17741
G1 X101.601 Y139.093 E65.21762
G1 X101.526 Y138.069 E65.25785
G1 X101.344 Y137.06 E65.29801
G1 X101.055 Y136.074 E65.33826
G1 X100.662 Y135.126 E65.37846
G1 X100.17 Y134.223 E65.41874
G1 X99.584 Y133.38 E65.45896
G1 X98.913 Y132.604 E65.49915
G1 X98.161 Y131.905 E65.53936
G1 X97.339 Y131.288 E65.57963
G1 X96.455 Y130.765 E65.61986
G1 X95.524 Y130.338 E65.65999
G1 X94.55 Y130.012 E65.70022
G1 X93.544 Y129.792 E65.74056
G1 X92.524 Y129.682 E65.78075
G1 X91.499 Y129.681 E65.8209
G1 X90.478 Y129.789 E65.86112
G1 X89.474 Y130.005 E65.90135
G1 X88.499 Y130.329 E65.9416
G1 X87.563 Y130.754 E65.98186
G1 X86.681 Y131.276 E66.02201
G1 X85.858 Y131.889 E66.06221
G1 X85.104 Y132.588 E66.10249
G1 X84.43 Y133.361 E66.14266
G1 X83.843 Y134.203 E66.18287
G1 X83.349 Y135.104 E66.22312
G1 X82.954 Y136.052 E66.26335
G1 X82.662 Y137.035 E66.30352
G1 X82.476 Y138.046 E66.34379
G1 X82.4 Y139.071 E66.38405
G1 X82.433 Y140.096 E66.42423
G1 X82.576 Y141.112 E66.46442
G1 X82.827 Y142.107 E66.50462
G1 X83.182 Y143.072 E66.5449
G1 X83.639 Y143.99 E66.58507
G1 X84.19 Y144.857 E66.62531
G1 X84.832 Y145.659 E66.66555
G1 X85.555 Y146.387 E66.70574
G1 X86.352 Y147.035 E66.74598
G1 X87.214 Y147.593 E66.78621
G1 X88.129 Y148.057 E66.82639
G1 X89.09 Y148.421 E66.86665
G1 X90.083 Y148.679 E66.90684
G1 X91.24 Y148.85 E66.95265
G1 X91.24 Y149.071 E66.96131
G0 F2625 X88.8 Y161
G1 F900 X88.799 Y162.719 E67.02865
G1 X88.49 Y162.793 E67.0411
G1 X87.396 Y163.161 E67.08631
G1 X86.341 Y163.628 E67.13151
G1 X85.334 Y164.189 E67.17666
G1 X84.381 Y164.839 E67.22185
G1 X83.491 Y165.571 E67.26699
G1 X82.67 Y166.381 E67.31217
G1 X81.927 Y167.263 E67.35735
G1 X81.265 Y168.21 E67.40261
G1 X80.694 Y169.211 E67.44775
G1 X80.216 Y170.261 E67.49295
G1 X79.835 Y171.351 E67.53818
G1 X79.555 Y172.468 E67.58329
G1 X79.374 Y173.607 E67.62847
G1 X79.302 Y174.759 E67.67368
G1 X79.331 Y175.912 E67.71886
G1 X79.466 Y177.057 E67.76403
G1 X79.705 Y178.187 E67.80927
G1 X80.045 Y179.288 E67.85441
G1 X80.482 Y180.355 E67.89958
G1 X81.016 Y181.379 E67.94482
G1 X81.64 Y182.35 E67.99003
G1 X82.35 Y183.259 E68.03521
G1 X83.139 Y184.1 E68.08039
G1 X84.001 Y184.864 E68.12551
G1 X84.927 Y185.551 E68.17068
G1 X85.914 Y186.149 E68.21588
G1 X86.951 Y186.655 E68.26108
G1 X88.029 Y187.066 E68.30628
G1 X89.14 Y187.375 E68.35145
G1 X90.276 Y187.584 E68.3967
G1 X91.423 Y187.688 E68.44181
G1 X92.577 Y187.688 E68.48702
G1 X93.724 Y187.584 E68.53213
G1 X94.86 Y187.375 E68.57738
G1 X95.971 Y187.066 E68.62255
G1 X97.049 Y186.655 E68.66775
G1 X98.086 Y186.149 E68.71295
G1 X99.073 Y185.551 E68.75815
G1 X99.999 Y184.864 E68.80332
G1 X100.861 Y184.1 E68.84844
G1 X101.65 Y183.259 E68.89362
G1 X102.36 Y182.35 E68.9388
G1 X102.984 Y181.379 E68.98401
G1 X103.518 Y180.355 E69.02925
G1 X103.955 Y179.288 E69.07442
G1 X104.295 Y178.187 E69.11956
G1 X104.534 Y177.057 E69.1648
G1 X104.669 Y175.912 E69.20997
G1 X104.698 Y174.759 E69.25515
G1 X104.626 Y173.607 E69.30036
G1 X104.445 Y172.468 E69.34554
G1 X104.165 Y171.351 E69.39065
G1 X103.784 Y170.261 E69.43588
G1 X103.306 Y169.211 E69.48108
G1 X102.735 Y168.21 E69.52622
G1 X102.073 Y167.263 E69.57148
G1 X101.33 Y166.381 E69.61666
G1 X100.509 Y165.571 E69.66184
G1 X99.619 Y164.839 E69.70698
G1 X98.666 Y164.189 E69.75217
G1 X97.659 Y163.628 E69.79732
G1 X96.604 Y163.161 E69.84252
G1 X95.51 Y162.793 E69.88773
G1 X95.2 Y162.719 E69.90022
G1 X95.2 Y161 E69.96756
G1 X88.8 Y161 E70.21826
G0 F2625 X114.24 Y149.071
G1 F900 X116.893 Y148.684 E70.32329
G1 X117.888 Y148.428 E70.36353
G1 X118.85 Y148.066 E70.4038
G1 X119.766 Y147.604 E70.44399
G1 X120.628 Y147.049 E70.48415
G1 X121.427 Y146.402 E70.52442
G1 X122.152 Y145.676 E70.56461
G1 X122.796 Y144.876 E70.60484
G1 X123.348 Y144.012 E70.64501
G1 X123.808 Y143.095 E70.6852
G1 X124.167 Y142.131 E70.72549
G1 X124.42 Y141.135 E70.76575
G1 X124.563 Y140.119 E70.80594
G1 X124.601 Y139.093 E70.84616
G1 X124.526 Y138.069 E70.88638
G1 X124.344 Y137.06 E70.92654
G1 X124.055 Y136.074 E70.96679
G1 X123.662 Y135.126 E71.00699
G1 X123.17 Y134.223 E71.04728
G1 X122.584 Y133.38 E71.08749
G1 X121.913 Y132.604 E71.12768
G1 X121.161 Y131.905 E71.1679
G1 X120.339 Y131.288 E71.20816
G1 X119.455 Y130.765 E71.2484
G1 X118.524 Y130.338 E71.28852
G1 X117.55 Y130.012 E71.32875
G1 X116.544 Y129.792 E71.36909
G1 X115.524 Y129.682 E71.40928
G1 X114.499 Y129.681 E71.44943
G1 X113.478 Y129.789 E71.48965
G1 X112.474 Y130.005 E71.52988
G1 X111.499 Y130.329 E71.57013
G1 X110.563 Y130.754 E71.6104
G1 X109.681 Y131.276 E71.65055
G1 X108.858 Y131.889 E71.69075
G1 X108.104 Y132.588 E71.73102
G1 X107.43 Y133.361 E71.7712
G1 X106.843 Y134.203 E71.8114
G1 X106.349 Y135.104 E71.85166
G1 X105.954 Y136.052 E71.89189
G1 X105.662 Y137.035 E71.93206
G1 X105.476 Y138.046 E71.97233
G1 X105.4 Y139.071 E72.01259
G1 X105.433 Y140.096 E72.05276
G1 X105.576 Y141.112 E72.09295
G1 X105.827 Y142.107 E72.13315
G1 X106.182 Y143.072 E72.17343
G1 X106.639 Y143.99 E72.2136
G1 X107.19 Y144.857 E72.25384
G1 X107.832 Y145.659 E72.29409
G1 X108.555 Y146.387 E72.33428
G1 X109.352 Y147.035 E72.37452
G1 X110.214 Y147.593 E72.41474
G1 X111.129 Y148.057 E72.45493
G1 X112.09 Y148.421 E72.49518
G1 X113.083 Y148.679 E72.53537
G1 X114.24 Y148.85 E72.58119
G1 X114.24 Y149.071 E72.58985
G0 F2625 X137.24 Y149.071
G1 F900 X139.893 Y148.684 E72.69487
G1 X140.888 Y148.428 E72.73512
G1 X141.85 Y148.066 E72.77538
G1 X142.766 Y147.604 E72.81557
G1 X143.628 Y147.049 E72.85573
G1 X144.427 Y146.402 E72.89601
G1 X145.152 Y145.676 E72.9362
G1 X145.796 Y144.876 E72.97643
G1 X146.348 Y144.012 E73.01659
G1 X146.808 Y143.095 E73.05678
G1 X147.167 Y142.131 E73.09708
G1 X147.42 Y141.135 E73.13733
G1 X147.563 Y140.119 E73.17752
G1 X147.601 Y139.093 E73.21774
G1 X147.526 Y138.069 E73.25796
G1 X147.344 Y137.06 E73.29813
G1 X147.055 Y136.074 E73.33838
G1 X146.662 Y135.126 E73.37858
G1 X146.17 Y134.223 E73.41886
G1 X145.584 Y133.38 E73.45908
G1 X144.913 Y132.604 E73.49926
G1 X144.161 Y131.905 E73.53948
G1 X143.339 Y131.288 E73.57974
G1 X142.455 Y130.765 E73.61998
G1 X141.524 Y130.338 E73.6601
G1 X140.55 Y130.012 E73.70034
G1 X139.544 Y129.792 E73.74068
G1 X138.524 Y129.682 E73.78087
G1 X137.499 Y129.681 E73.82102
G1 X136.478 Y129.789 E73.86124
G1 X135.474 Y130.005 E73.90147
G1 X134.499 Y130.329 E73.94171
G1 X133.563 Y130.754 E73.98198
G1 X132.681 Y131.276 E74.02213
G1 X131.858 Y131.889 E74.06233
G1 X131.104 Y132.588 E74.10261
G1 X130.43 Y133.361 E74.14278
G1 X129.843 Y134.203 E74.18299
G1 X129.349 Y135.104 E74.22324
G1 X128.954 Y136.052 E74.26347
G1 X128.662 Y137.035 E74.30364
G1 X128.476 Y138.046 E74.34391
G1 X128.4 Y139.071 E74.38417
G1 X128.433 Y140.096 E74.42435
G1 X128.576 Y141.112 E74.46454
G1 X128.827 Y142.107 E74.50474
G1 X129.182 Y143.072 E74.54501
G1 X129.639 Y143.99 E74.58518
G1 X130.19 Y144.857 E74.62543
G1 X130.832 Y145.659 E74.66567
G1 X131.555 Y146.387 E74.70586
G1 X132.352 Y147.035 E74.7461
G1 X133.214 Y147.593 E74.78632
G1 X134.129 Y148.057 E74.82651
G1 X135.09 Y148.421 E74.86677
G1 X136.083 Y148.679 E74.90696
G1 X137.24 Y148.85 E74.95277
G1 X137.24 Y149.071 E74.96143
G0 F2625 X134.8 Y161
G1 F900 X134.799 Y162.719 E75.02877
G1 X134.49 Y162.793 E75.04122
G1 X133.396 Y163.161 E75.08643
G1 X132.341 Y163.628 E75.13163
G1 X131.334 Y164.189 E75.17678
G1 X130.381 Y164.839 E75.22197
G1 X129.491 Y165.571 E75.26711
G1 X128.67 Y166.381 E75.31229
G1 X127.927 Y167.263 E75.35747
G1 X127.265 Y168.21 E75.40273
G1 X126.694 Y169.211 E75.44787
G1 X126.216 Y170.261 E75.49306
G1 X125.835 Y171.351 E75.5383
G1 X125.555 Y172.468 E75.58341
G1 X125.374 Y173.607 E75.62858
G1 X125.302 Y174.759 E75.6738
G1 X125.331 Y175.912 E75.71898
G1 X125.466 Y177.057 E75.76414
G1 X125.705 Y178.187 E75.80939
G1 X126.045 Y179.288 E75.85453
G1 X126.482 Y180.355 E75.8997
G1 X127.016 Y181.379 E75.94494
G1 X127.64 Y182.35 E75.99015
